icon-svg/bulb-group-sultan-lightstrip.svg

<svg xmlns="http://www.w3.org/2000/svg" fill="#44739e" viewBox="0 0 24 24"><path d="M20.311 3.19C18.883 2 15.311 2 15.073 2s-4.048 0-5.238 1.19c-1.429 1.191-.238 3.334.238 4.286a29.73 29.73 0 0 0 5 .476 32.4 32.4 0 0 0 5-.476c.238-.952 1.429-3.095.238-4.286m-7.857 14.524.476 2.619c0 .238 0 .238.238.477l.238.238.715.714a.874.874 0 0 0 .714.238h.476a.874.874 0 0 0 .714-.238l.238-.476.239-.238c.238 0 .238-.238.238-.477l.476-2.619H14.6a8.2 8.2 0 0 1-2.143-.238M10.311 8.19a29.96 29.96 0 0 1 1.189 7.858c0 .238 0 .476.238.476l.476.476h5.476l.476-.476a.737.737 0 0 0 .238-.476A26.84 26.84 0 0 1 19.6 8.429a31.9 31.9 0 0 1-4.762.238 9.83 9.83 0 0 1-4.524-.477m.476 7.858v-1.429H5.549a2.154 2.154 0 0 1-2.381-1.9V15.1a2.608 2.608 0 0 0 2.381 2.619H11.5L11.025 17a1.43 1.43 0 0 1-.238-.952m-4.762.476a.477.477 0 0 1 0-.953.477.477 0 1 1 0 .953m2.619 0a.477.477 0 0 1 0-.953c.239 0 .477 0 .477.477a.512.512 0 0 1-.477.476m-5-4.524a2.3 2.3 0 0 0 2.858 1.9l4.047-.953A13.65 13.65 0 0 0 9.6 9.619L4.359 10.81A.833.833 0 0 0 3.644 12m4.048-.714a.874.874 0 0 1 .714.238c0 .238 0 .476-.476.714A.874.874 0 0 1 7.216 12c0-.476.238-.714.476-.714m-2.381.476c.238 0 .476 0 .714.476a.874.874 0 0 1-.238.714c-.238 0-.476 0-.714-.476s0-.714.238-.714M3.644 8.9H9.6v-.471l-.238-.477v-.238a3.84 3.84 0 0 1-.953-1.666H3.644a.512.512 0 0 0-.476.476v1.905c0 .238 0 .476.476.476M7.216 7a.476.476 0 0 1 0 .952c-.238 0-.714-.238-.714-.476S6.74 7 7.216 7M4.6 7a.476.476 0 0 1 0 .952.476.476 0 0 1 0-.952"/></svg>

<?xml version="1.0" encoding="UTF-8"?>
<svg width="24px" height="24px" viewBox="0 0 24 24" version="1.1" fill="#44739e" xmlns="http://www.w3.org/2000/svg" xmlns:xlink="http://www.w3.org/1999/xlink">
            <path d="M 20.311,3.19 C 18.883,2 15.311,2 15.073,2 14.835,2 11.025,2 9.835,3.19 8.406,4.381 9.597,6.524 10.073,7.476 a 29.732,29.732 0 0 0 5,0.476 32.422,32.422 0 0 0 5,-0.476 C 20.311,6.524 21.502,4.381 20.311,3.19 m -7.857,14.524 0.476,2.619 c 0,0.238 0,0.238 0.238,0.477 l 0.238,0.238 v 0 l 0.715,0.714 A 0.874,0.874 0 0 0 14.835,22 h 0.476 a 0.874,0.874 0 0 0 0.714,-0.238 l 0.238,-0.476 v 0 l 0.239,-0.238 c 0.238,0 0.238,-0.238 0.238,-0.477 l 0.476,-2.619 H 14.6 A 8.2,8.2 0 0 1 12.457,17.714 M 10.311,8.19 a 29.962,29.962 0 0 1 1.189,7.858 c 0,0.238 0,0.476 0.238,0.476 L 12.214,17 h 5.476 l 0.476,-0.476 A 0.737,0.737 0 0 0 18.404,16.048 26.843,26.843 0 0 1 19.6,8.429 31.924,31.924 0 0 1 14.838,8.667 9.833,9.833 0 0 1 10.314,8.19 m 0.476,7.858 V 14.619 H 5.549 a 2.154,2.154 0 0 1 -2.381,-1.9 V 15.1 a 2.608,2.608 0 0 0 2.381,2.619 H 11.5 L 11.025,17 a 1.431,1.431 0 0 1 -0.238,-0.952 m -4.762,0.476 a 0.477,0.477 0 0 1 0,-0.953 0.477,0.477 0 1 1 0,0.953 m 2.619,0 a 0.477,0.477 0 0 1 0,-0.953 c 0.239,0 0.477,0 0.477,0.477 A 0.512,0.512 0 0 1 8.644,16.524 M 3.644,12 a 2.3,2.3 0 0 0 2.858,1.9 l 4.047,-0.953 A 13.651,13.651 0 0 0 9.6,9.619 L 4.359,10.81 A 0.833,0.833 0 0 0 3.644,12 m 4.048,-0.714 a 0.874,0.874 0 0 1 0.714,0.238 c 0,0.238 0,0.476 -0.476,0.714 A 0.874,0.874 0 0 1 7.216,12 c 0,-0.476 0.238,-0.714 0.476,-0.714 m -2.381,0.476 c 0.238,0 0.476,0 0.714,0.476 a 0.874,0.874 0 0 1 -0.238,0.714 c -0.238,0 -0.476,0 -0.714,-0.476 -0.238,-0.476 0,-0.714 0.238,-0.714 M 3.644,8.9 H 9.6 V 8.429 L 9.362,7.952 V 7.714 A 3.838,3.838 0 0 1 8.409,6.048 H 3.644 A 0.512,0.512 0 0 0 3.168,6.524 v 1.905 c 0,0.238 0,0.476 0.476,0.476 M 7.216,7 a 0.476,0.476 0 0 1 0,0.952 C 6.978,7.952 6.502,7.714 6.502,7.476 6.502,7.238 6.74,7 7.216,7 M 4.6,7 A 0.476,0.476 0 0 1 4.6,7.952 0.476,0.476 0 0 1 4.6,7"/>

</svg>
